!!!COM: Palestrina, Giovanni Perluigi da
!!!OPR: Inviolata
!!!OTL: Benedictus
**kern	**kern	**kern	**kern
*Ibass	*Itenor	*Icalto	*Icant
!Bassus	!Tenor	!Altus	!Cantus
*clefF4	*clefGv2	*clefG2	*clefG2
*k[b-]	*k[b-]	*k[b-]	*k[b-]
*F:ion	*F:ion	*F:ion	*F:ion
*M4/2	*M4/2	*M4/2	*M4/2
=1	=1	=1	=1
0r	0r	0f	1r
.	.	.	[1cc
=2	=2	=2	=2
0r	0r	1e	1cc]
.	.	[1d	1b-
=3	=3	=3	=3
0r	0r	2d]	1.a
.	.	4c	.
.	.	4B-	.
.	.	2A	.
.	.	2B-	4g
.	.	.	4f
=4	=4	=4	=4
0r	0r	2c	2e
.	.	2A	2f
.	.	4G	2g
.	.	4A	.
.	.	4B-	4d
.	.	4c	4e
=5	=5	=5	=5
0r	1r	4d	4f
.	.	4e	4g
.	.	1f	4a
.	.	.	4f
.	[1c	.	2.g
.	.	4e	.
.	.	4d	4f
=6	=6	=6	=6
0r	1c]	1e	2g
.	.	.	1a
.	1B-	1d	.
.	.	.	2g
=7	=7	=7	=7
0F	1.A	1r	0a
.	.	[1c	.
.	4G	.	.
.	4F	.	.
=8	=8	=8	=8
1E	1G	1c]	0r
[1D	1F	1B-	.
=9	=9	=9	=9
2D]	0f	1.A	0r
4C	.	.	.
4BB-	.	.	.
2AA	.	.	.
2BB-	.	4G	.
.	.	4F	.
=10	=10	=10	=10
1C	1e	2A	0r
.	.	2G	.
[1BB-	[1d	1B-	.
=11	=11	=11	=11
2BB-]	2d]	1F	0f
2AA	4c	.	.
.	4B-	.	.
1D	2A	1r	.
.	2B	.	.
=12	=12	=12	=12
1C	2c	1r	1e
.	2G	.	.
1BB-	1B-	[1f	2.d
.	.	.	4e
=13	=13	=13	=13
1FF	2A	1f]	4f
.	.	.	4g
.	4F	.	4a
.	4G	.	4b-
1r	4A	1e	2cc
.	4B-	.	.
.	4c	.	[2a
.	4A	.	.
=14	=14	=14	=14
1r	1B-	1.d	2a]
.	.	.	2g
[1F	1A	.	[1a
.	.	4c	.
.	.	4B-	.
=15	=15	=15	=15
1F]	0c	2A	1a]
.	.	4G	.
.	.	4F	.
1E	.	1G	1r
=16	=16	=16	=16
1.D	1B-	2F	0r
.	.	1f	.
.	[1A	.	.
4C	.	4e	.
4BB-	.	4d	.
=17	=17	=17	=17
2AA	2A]	2c	1r
2BB-	4G	2d	.
.	4F	.	.
2C	2E	2G	1cc
2AA	2F	2A	.
=18	=18	=18	=18
4GG	1G	1.d	1b-
4AA	.	.	.
4BB-	.	.	.
4C	.	.	.
4D	2.F	.	[1a
4E	.	.	.
[2F	.	2c	.
.	4G	.	.
=19	=19	=19	=19
2F]	4A	1c	2a]
.	4B-	.	.
4E	1c	.	4g
4D	.	.	4f
2C	.	1r	2e
2D	4B-	.	2f
.	4A	.	.
=20	=20	=20	=20
2E	2G	0r	2g
2C	1c	.	2e
1G	.	.	1d
.	2B	.	.
=21	=21	=21	=21
0C	1c	2r	0e
.	.	2c	.
.	2r	2c	.
.	2c	2c	.
=22	=22	=22	=22
0r	2c	2.A	2r
.	2c	.	2cc
.	.	4B-	.
.	2.A	2.c	2cc
.	.	.	2cc
.	4B-	4d	.
=23	=23	=23	=23
0r	2c	2e	2.a
.	2d	2f	.
.	.	.	4b-
.	2A	2e	2cc
.	[2d	[2f	[2b-
=24	=24	=24	=24
0r	4d]	4f]	4b-]
.	4c	4e	4a
.	2A	2c	1a
.	2B-	2d	.
.	2c	2e	2g
=25	=25	=25	=25
2r	1F	1f	[0a
2F	.	.	.
2F	1r	2r	.
2F	.	2f	.
=26	=26	=26	=26
2.D	2r	2f	1a]
.	2A	2f	.
4E	.	.	.
2F	2A	2.d	1r
2G	2B-	.	.
.	.	4e	.
=27	=27	=27	=27
2A	2c	1f	2r
2.B-	2.d	.	2f
.	.	1r	2f
4A	4c	.	.
2F	[2c	.	2f
=28	=28	=28	=28
1G	2c]	0r	2.d
.	2B-	.	.
.	.	.	4e
2F	2A	.	2f
2E	2G	.	[2g
=29	=29	=29	=29
1F	1A	1c	4g]
.	.	.	4f
.	.	.	1f
1C	1G	2c	.
.	.	2c	2e
=30	=30	=30	=30
2r	1F	2.A	2f
2F	.	.	2.a
.	.	4B-	.
2F	1r	2c	.
.	.	.	4g
2F	.	[2d	[2f
=31	=31	=31	=31
2D	0r	2d]	2f]
2E	.	1c	2e
2F	.	.	2d
2G	.	2B	2d
=32	=32	=32	=32
2.A	2r	1c	1c
.	2c	.	.
4G	.	.	.
2F	2c	1r	2r
2E	2c	.	2cc
=33	=33	=33	=33
1F	1A	2r	2cc
.	.	2c	2cc
2r	2.F	2c	2.a
2F	.	2c	.
.	4G	.	4b-
=34	=34	=34	=34
2F	4A	2A	4cc
.	4B-	.	4b-
2F	2c	1f	4a
.	.	.	4g
2D	2d	.	2f
2E	4c	4e	[2g
.	4B-	4d	.
=35	=35	=35	=35
2F	2A	2c	4g]
.	.	.	4f
2BB-	2B-	2d	1f
1C	2G	1c	.
.	2G	.	2e
=36	=36	=36	=36
[0FF	[0F	[0A	[0f
=37	=37	=37	=37
0FF]	0F]	0A]	0f]
==	==	==	==
*-	*-	*-	*-
!!!CDT: 1525/^1526/-1594/2/2
!!!OCY: Italia
!!!AGN: Mass (Parody)
!!!AST: renaissance, vocal
!!!ASW: Motet 1532 (Courtois)
!!!PWK: Masses, Book 2
!!!RNB: Cadence finals: C
!!!YOR: Le Opere Complete, v. 4, p. 26
!!!YOO: Rome, Italy: Fratelli Scalera
!!!END: 1992//
!!!EED: John Miller
!!!YEC: Copyright 2000, John Miller
!!!YEN: United States of America
!!!YEM: Rights to all derivative electronic formats reserved.
!!!YEM: Refer to licensing agreement for further details.
!!!YEM: This file must be accompanied by the licensing agreement.
!!!YEM: A copy of the licensing agreement may be found at http://www.music-cog.ohio-state.edu/HumdrumDatabases/Palestrina/license.txt
!!!EMD: converted to Humdrum by Bret Aarden
